!!!COM: Robert Schumann
!!!CNT: Deutsch
!!!TXO: Deutsch
!!!OTL: "Der Zeisig"
!!!LYR: Elizabeth Kulmann
!!!OPR: Sieben Lieder
!!!OPS: Op. 104
!!!ONM: No. 4
!!!ENC: Leigh VanHandel
!!!YOR: Schumann Lieder - Max Friedlaender, ed.,
!!!YOR: New York: C. F. Peters, Vol. 3
!!!ODT: 1851/
**kern	**silbe
*staff1	*
*clefG2	*
*k[b-e-]	*
*M4/16	*
*MM[Munter]	*
=1	=1
16r	.
{16f	{Wir
[8b-	sind
=2	=2
16b-]	|
16f	ja,
16b-	Kind,
16cc	im
=3	=3
16dd	Mai-
16b-}	-e,}
16r	.
{16ff	{wirf
=4	=4
16cc	Buch
16cc	und
16ee-	Heft
16ee-	von
=5	=5
16dd}	dir!}
16r	.
8r	.
=6	=6
4r	.
=7	=7
16r	.
{16dd	{Komm'
16dd	ein-
16dd	-mal
=8	=8
8.cc	her
16b-	ins
=9	=9
16b-	Frei-
16a}	-e,}
16r	.
{16a	{und
=10	=10
16dd	sing'
16dd	ein
16en	Lied
16e	mit
=11	=11
8f}	mir.}
8r	.
=12	=12
4r	.
=13	=13
{8f	{Komm',
aq	sin-
16g	|
16f	-gen
=14	=14
16.b-	fro2h-
32b-	-lich
16.en	bei-
32e	-de
=15	=13
8f	wir
aq	ei-
16g	|
16f	-nen
=16	=16
16.dd	Wett-
32dd	-ge-
8b-}	-sang,}
=17	=17
16r	.
{16b-	{und
[8ee-	wer-
=18	=18
16ee-]	|
16b-	da
16ee-	will,
16ff	ent-
=19	=19
16gg	-schei-
16ee-}	-de,}
8r	.
=20	=20
16r	.
{16ee-	{wer
16dd	von
16cc	uns
=21	=21
8.ff	bes-
16ee-	-ser
=22	=22
16dd}	sang,
{16ee-	wer
16dd	von
16cc	uns
=23	=23
8ff	bes-
8a	-ser
=24	=24
8b-}	sang!}
8r	.
==	==
*-	*-
